!!!!SEGMENT: pl-kk--kk-i-269--002_anonim--tollite-portas.krn
!!!cenid: 16xx:784
!!!COM: Anonim
!!!COM-rismid: pe30004985
!!!CDT:
!!!CNT:
!!!OTL: Tollite portas
!!!PDT:
!!!AGN: Sacred
!!!SMS-siglum: PL-Kk
!!!SMS-shelfmark: Kk.I.269
!!!SMS-shelfwork: 002 W
!!!SMS-variant:
!!!SMS-altvar:
!!!NIFC-rismid: 1001143714
!!!URL-scan: http://repozytorium.nifc.pl/skany/pl-kk-nut--i-269
!!!ONB-nifc: UWAGA: utwory w zbiorze: 1. Rorate caeli, 2. Tollite portas
!!!key:
**kern	**text	**kern	**text	**kern	**text	**kern	**text	**kern	**text
*part5	*part5	*part4	*part4	*part3	*part3	*part2	*part2	*part1	*part1
*staff5	*staff5	*staff4	*staff4	*staff3	*staff3	*staff2	*staff2	*staff1	*staff1
*Iempty	*	*Iempty	*	*Itenor	*	*Ialto	*	*Ivox	*
*I"Baſso Ripieno.	*	*I"Baſso.	*	*I"Tenore.	*	*I"Alto.	*	*I"Canto.	*
*I'B rip	*	*I'B	*	*I'T	*	*I'A	*	*I'S	*
*clefF4	*	*clefF4	*	*clefC4	*	*clefC3	*	*clefC1	*
*k[]	*	*k[]	*	*k[]	*	*k[]	*	*k[]	*
*a:	*	*a:	*	*a:	*	*a:	*	*a:	*
*M2/2	*	*M2/2	*	*M2/2	*	*M2/2	*	*M2/2	*
*met(c|)	*	*met(c|)	*	*met(c|)	*	*met(c|)	*	*met(c|)	*
=1	=1	=1	=1	=1	=1	=1	=1	=1	=1
!LO:TX:a:t=Lentè	!	!LO:TX:a:t=2	!	!LO:TX:a:t=1.	!	!LO:TX:a:t=1.	!	!	!
0r	.	0r	.	1r	.	1r	.	4.ee\	Tol-
.	.	.	.	.	.	.	.	8ee\	-li-
*	*	*	*	*	*	*	*	*2\right	*
.	.	.	.	.	.	.	.	2a\	-te
=2	=2	=2	=2	=2	=2	=2	=2	=2	=2
.	.	.	.	4.e\	Tol-	2r	.	2b\	por-
.	.	.	.	8e\	-li-	.	.	.	.
.	.	.	.	2A/	-te	4.a\	Tol-	2cc\	-tas
.	.	.	.	.	.	8a\	-li-	.	.
=3	=3	=3	=3	=3	=3	=3	=3	=3	=3
*	*	*	*	*2\right	*	*2\right	*	*	*
2r	.	2r	.	2B\	por-	2d\	-te	4.dd\	Prin-
.	.	.	.	.	.	.	.	8dd\	-ci-
4.A\	Tol-	4.A\	Tol-	2c\	-taſ	2e\	por-	2cc\	-pes
8A\	-li-	8A\	-li-	.	.	.	.	.	.
=4	=4	=4	=4	=4	=4	=4	=4	=4	=4
!	!	!LO:TX:t=P:global:problem=oddech jako rozdzielacz słów, przeważnie na wysokości dźwięku poprzedniego	!	!	!	!	!	!	!
2D/	-te	2D,/	-te	4.d\	Prin-	2f\	-tas	(4a\	ve-
.	.	.	.	.	.	.	.	4dd\)	.
.	.	.	.	8d\	-ci-	.	.	.	.
*2\right	*	*2\right	*	*	*	*	*	*	*
!	!	!	!	!	!	!	!	!LO:TX:t=P:global:problem=oddech jako rozdzielacz słów, przeważnie na wysokości dźwięku poprzedniego	!
2E\	por-	2E\	por-	2c\	-pes	4.g\	Prin-	4g,/	-straſ
.	.	.	.	.	.	.	.	4g/	et
.	.	.	.	.	.	8g\	-ci-	.	.
=5	=5	=5	=5	=5	=5	=5	=5	=5	=5
2F\	-tas	2F,\	-tas	(4A/	ve-	2f\	-pes	4a\	e-
.	.	.	.	4d\)	.	.	.	4a\	-le-
!	!	!	!	!LO:TX:t=P:global:problem=oddech jako rozdzielacz słów, przeważnie na wysokości dźwięku poprzedniego	!	!	!	!	!
4.G\	P(rin-	4.G\	Prin-	4G,/	-stras	(4d\	ve-	4b\	-va-
.	.	.	.	4G/	et	4g\)	.	8b\	-mi-
8G\	-ci)-	8G\	-ci-	.	.	.	.	8b\	-ni
!	!	!	!	!	!	!	!	!LO:LB:g=original	!
=6	=6	=6	=6	=6	=6	=6	=6	=6	=6
!LO:TX:t=P:global:problem=oddech jako rozdzielacz słów, przeważnie na wysokości dźwięku poprzedniego	!	!	!	!	!	!LO:TX:t=P:global:problem=oddech jako rozdzielacz słów, przeważnie na wysokości dźwięku poprzedniego	!	!	!
2F,\	-pes	2F,\	-pes	4A\	e-	4c,/	-straſ	2r	.
!	!	!	!	!	!	!LO:SIC:v:l:s=et	!	!	!
.	.	.	.	4A\	-le-	4c/	e	.	.
(4D\	ve-	(4D/	ve-	4B\	-va-	4d\	e-	(8dd\L	por-
.	.	.	.	.	.	.	.	8cc\J)	.
4G\)	.	4G\)	.	8B\	-mi-	4d\	-le-	(8b\L	-tae
.	.	.	.	8B\	-ni	.	.	8a\J)	.
!	!	!	!	!LO:LB:g=original	!	!	!	!	!
=7	=7	=7	=7	=7	=7	=7	=7	=7	=7
4C,/	-ſtras	4C,/	-straſ	2r	.	4e\	-va-	4g/	ae-
4C/	et	4C/	et	.	.	8e\	-mi-	(8cc\L	-ter-
.	.	.	.	.	.	8e\	-ni	8b\J)	.
4D\	e-	4D/	e-	(8d\L	por-	2r	.	4a\	-na-
.	.	.	.	8c\J)	.	.	.	.	.
4D\	-le-	4D/	-le-	(8B\L	-tae	.	.	(8dd\L	.
.	.	.	.	8A\J)	.	.	.	8cc\J)	.
!	!	!	!	!	!	!LO:LB:g=original	!	!	!
=8	=8	=8	=8	=8	=8	=8	=8	=8	=8
4E\	-va-	4E\	-va-	4G/	ae-	(8g\L	por-	2b\	-leſ
.	.	.	.	.	.	8f\J)	.	.	.
8E\	-mi-	8E\	-mi-	(8c\L	-ter-	(8e\L	-tae	.	.
8E\	-ni	8E\	-ni	8B\J)	.	8d\J)	.	.	.
2r	.	2r	.	4A/	-na-	4c\	ae-	2r	.
.	.	.	.	(8d\L	.	(8f\L	-ter-	.	.
.	.	.	.	8c\J)	.	8e\J)	.	.	.
!	!	!LO:LB:g=original	!	!	!	!	!	!	!
=9	=9	=9	=9	=9	=9	=9	=9	=9	=9
(8G\L	por-	(8G\L	por-	2B\	-leſ	4d\	-na-	1r	.
8F\J)	.	8F\J)	.	.	.	.	.	.	.
(8E\L	-tae	(8E\L	-tae	.	.	(8g\L	.	.	.
8D\J)	.	8D\J)	.	.	.	8f\J)	.	.	.
4C/	ae-	4C/	ae-	2r	.	2e\	-leſ	.	.
(8F\L	-ter-	(8F\L	-ter-	.	.	.	.	.	.
8E\J)	.	8E\J)	.	.	.	.	.	.	.
=10	=10	=10	=10	=10	=10	=10	=10	=10	=10
!	!	!	!	!LO:TX:a:t=1.	!	!	!	!	!
4D\	-na-	4D\	-na-	1r	.	1r	.	2dd\	et
8G\L	.	(8G\L	.	.	.	.	.	.	.
8F\J	.	8F\J)	.	.	.	.	.	.	.
2E\	-les	2E\	-leſ	.	.	.	.	4g/	in-
.	.	.	.	.	.	.	.	4g/	-tro-
=11	=11	=11	=11	=11	=11	=11	=11	=11	=11
!	!	!LO:TX:a:t=1.	!	!	!	!	!	!	!
1r	.	1r	.	2d\	et	2r	.	4a\	-i-
.	.	.	.	.	.	.	.	4a\	-bit
.	.	.	.	4G/	in-	2g\	et	2b\	Rex
.	.	.	.	4G/	-tro-	.	.	.	.
=12-	=12	=12	=12	=12	=12	=12	=12	=12	=12
2r	.	2r	.	4A/	-i-	4c/	in-	4cc\	glo-
.	.	.	.	4A/	-bit	4c/	-tro-	8cc\	-ri-
.	.	.	.	.	.	.	.	8cc\	-ae
2G\	et	2G\	et	2B\	Rex	4d\	-i-	2r	.
.	.	.	.	.	.	4d\	-bit	.	.
=13	=13	=13	=13	=13	=13	=13	=13	=13	=13
4C/	in-	4C/	in-	4c\	glo-	2e\	Rex	8ee\L	glo-
.	.	.	.	.	.	.	.	(8dd\	.
4C/	-tro-	4C/	-tro-	8c\	-ri-	.	.	8cc\	.
.	.	.	.	8c\	-ae	.	.	8b\J)	.
4D/	-i-	4D/	-i-	2r	.	4f\	glo-	4a\	.
!LO:SIC:v:custos E	!	!	!	!	!	!	!	!	!
4D/	-bit	4D,/	-bit	.	.	8f\	-ri-	(8dd\L	.
.	.	.	.	.	.	8f\	-ae	8cc\J)	.
!LO:LB:g=original	!	!	!	!	!	!	!	!LO:LB:g=original	!
=14	=14	=14	=14	=14	=14	=14	=14	=14	=14
2E\	Rex	2E\	Rex	8e\L	glo-	2r	.	4b\	.
.	.	.	.	(8d\	.	.	.	.	.
.	.	.	.	8c\	.	.	.	(8ee\L	.
.	.	.	.	8B\J)	.	.	.	8dd\J)	.
4F\	glo-	4F\	glo-	4A\	.	8a\L	glo-	(8cc\L	.
.	.	.	.	.	.	8g\	.	8b\J)	.
8F\	-ri-	8F\	-ri-	(8d\L	.	8f\	.	4a\	.
8F\	-ae	8F\	-ae	8c\J)	.	8e\J	.	.	.
!	!	!	!	!LO:LB:g=original	!	!	!	!	!
=15	=15	=15	=15	=15	=15	=15	=15	=15	=15
2r	.	2r	.	4B\	.	4d\	.	4.b\	.
.	.	.	.	(8e\L	.	(8g\L	.	.	.
.	.	.	.	8d\J)	.	8f\J)	.	8b\	-ri-
!	!	!	!	!	!	!LO:LB:g=original	!	!	!
8A\L	glo-	8A\L	glo-	(8c\L	.	4e\	.	2cc\	-ae
8G\	.	8G\	.	8B\J)	.	.	.	.	.
8F\	.	8F\	.	4A/	.	(8a\L	.	.	.
8E\J	.	8E\J	.	.	.	8g\J)	.	.	.
=16	=16	=16	=16	=16	=16	=16	=16	=16	=16
4D\	.	4D/	.	4.B\	.	(8f\L	.	2r	.
.	.	.	.	.	.	8e\J)	.	.	.
8G\L	.	(8G\L	.	.	.	4d\	.	.	.
8F\J	.	8F\J)	.	8B\	-ri-	.	.	.	.
4E\	.	4E\	.	2c\	-ae	4.e\	.	4g/	glo-
8A\L	.	(8A\L	.	.	.	.	.	8cc\L	.
8G\J	.	8G\J)	.	.	.	8e\	-ri-	8b\J	.
!	!	!LO:LB:g=original	!	!	!	!	!	!	!
=17	=17	=17	=17	=17	=17	=17	=17	=17	=17
8F\L	.	(8F\L	.	2r	.	2f\	-ae	4a\	.
8E\J	.	8E\J)	.	.	.	.	.	.	.
4D\	.	4D/	.	.	.	.	.	8dd\L	.
.	.	.	.	.	.	.	.	8cc\J	.
4.E\	.	4.E\	.	4G/	glo-	2r	.	4b\	.
.	.	.	.	8c\L	.	.	.	8ee\L	.
8E\	-ri-	8E\	-ri-	8B\J	.	.	.	8dd\J	.
=18	=18	=18	=18	=18	=18	=18	=18	=18	=18
2F\	-ae	2F\	-ae	4A/	.	4c/	glo-	4cc\	.
.	.	.	.	(8d\L	.	8f\L	.	8cc\	-ri-
.	.	.	.	8c\J)	.	8e\J	.	8cc\	-ae
2r	.	2r	.	4B\	.	4d\	.	2r	.
.	.	.	.	(8e\L	.	8g\L	.	.	.
.	.	.	.	8d\J)	.	8f\J	.	.	.
=19	=19	=19	=19	=19	=19	=19	=19	=19	=19
*	*	*	*	*	*	*	*	*2\left	*
4C/	glo-	4C/	glo-	4c\	.	4e\	.	2ee\	et
8F\L	.	(8F\L	.	8c\	-ri-	(8a\L	.	.	.
8E\J	.	8E\J)	.	8c\	-ae	8g\J)	.	.	.
4D\	.	4D/	.	2r	.	4f\	.	4a\	in-
8G\L	.	(8G\L	.	.	.	8f\	-ri-	4a\	-tro-
8F\J	.	8F\J)	.	.	.	8f\	-ae	.	.
=20	=20	=20	=20	=20	=20	=20	=20	=20	=20
*	*	*	*	*	*	*	*	*2\right	*
4E\	.	4E\	.	2e\	et	2r	.	2b\	-i-
8A\L	.	(8A\L	.	.	.	.	.	.	.
8G\J	.	8G\J)	.	.	.	.	.	.	.
8F\	.	4F\	.	4A/	in-	2a\	et	2cc\	-bit
8F\	-ri-	.	.	.	.	.	.	.	.
4F\	-ae	8F\	-ri-	4A/	-tro-	.	.	.	.
.	.	8F\	-ae	.	.	.	.	.	.
=21	=21	=21	=21	=21	=21	=21	=21	=21	=21
2r	.	2r	.	2B\	-i-	4d\	in-	2dd\	in-
.	.	.	.	.	.	4d\	-tro-	.	.
2A\	et	2A\	et	2c\	-bit	2e\	-i-	2cc\	-tro-
!	!	!	!	!	!	!	!	!LO:LB:g=original	!
=22	=22	=22	=22	=22	=22	=22	=22	=22	=22
4D\	in-	4D/	in-	2d\	in-	2f\	-bit	(4a\	-i-
4D\	-tro-	4D/	-tro-	.	.	.	.	4dd\)	.
2E\	-i-	2E\	-i-	2c\	-tro-	2g\	in-	2g/	-bit
!	!	!	!	!LO:LB:g=original	!	!LO:LB:g=original	!	!	!
=23	=23	=23	=23	=23	=23	=23	=23	=23	=23
2F,\	-bit	2F,\	-bit	(4A/	-i-	2f\	-tro-	2a\	Rex
.	.	.	.	4d\)	.	.	.	.	.
2G\	in-	2G\	in-	2G/	-bit	(4d\	-i-	4b\	glo-
.	.	.	.	.	.	4g\)	.	8b\	-ri-
.	.	.	.	.	.	.	.	8b\	-ae
=24	=24	=24	=24	=24	=24	=24	=24	=24	=24
2F\	-tro-	2F\	-tro-	2A/	Rex	2c/	-bit	2r	.
4D\	-i-	(4D/	-i-	4B\	glo-	2d\	Rex	8dd\L	glo-
.	.	.	.	.	.	.	.	(8cc\	.
4G\	-bit	4G\)	.	8B\	-ri-	.	.	8b\	.
.	.	.	.	8B\	-ae	.	.	8a\J)	.
!	!	!LO:LB:g=original	!	!	!	!	!	!	!
=25	=25	=25	=25	=25	=25	=25	=25	=25	=25
2C/	.	2C,/	-bit	8c\L	glo-	4e\	glo-	4g/	.
.	.	.	.	8B\	.	.	.	.	.
.	.	.	.	8A\	.	8e\	-ri-	8cc\L	.
.	.	.	.	8G\J	.	8e\	-ae	8b\J	.
2D\	Rex	2D/	Rex	8d\L	.	(2f\	glo-	4a\	.
.	.	.	.	8c\	.	.	.	.	.
.	.	.	.	8B\	.	.	.	8dd\L	.
.	.	.	.	8A\J	.	.	.	8cc\J	.
=26	=26	=26	=26	=26	=26	=26	=26	=26	=26
2.E\	gl[o-	2.E\	glo-	2A/	.	2.e\)	.	2.b\	.
.	.	.	.	2G#X/	-ri-	.	.	.	.
4E\	-ri]-	4E\	-ri-	.	.	4e\	-ri-	4b\	-ri-
=27-	=27	=27	=27	=27	=27	=27	=27	=27	=27
1AA/;	-ae	1AA/;	-ae	1A\	-ae	1e\	-ae	1a\	-ae.
!LO:LB:g=original	!	!	!	!	!	!	!LO:PB:g=original	!	!
=28||	=28||	=28||	=28||	=28||	=28||	=28||	=28||	=28||	=28||
*M2/2	*	*M2/2	*	*M2/2	*	*M2/2	*	*M2/2	*
*met(c|)	*	*met(c|)	*	*met(c|)	*	*met(c|)	*	*met(c|)	*
!	!	!LO:TX:a:t=3.	!	!LO:TX:a:t=2	!	!LO:TX:a:t=1.	!	!LO:TX:a:i:t=S.	!
0r	.	0r	.	0r	.	1r	.	2r	.
.	.	.	.	.	.	.	.	4a\	Quis
.	.	.	.	.	.	.	.	4b\	aſ-
=29	=29	=29	=29	=29	=29	=29	=29	=29	=29
.	.	.	.	.	.	4e\	Quis	4cc\	-cen-
!	!	!	!	!	!	!LO:TX:t=P:problem=przekreślona kreska taktowa	!	!	!
.	.	.	.	.	.	4f#X\	a-	(8b\L	.
.	.	.	.	.	.	.	.	8a\J)	.
.	.	.	.	.	.	4g\	-ſcen-	4b\	.
.	.	.	.	.	.	(8f#X\L	.	4ee\	.
.	.	.	.	.	.	8e\J)	.	.	.
=30	=30	=30	=30	=30	=30	=30	=30	=30	=30
1r	.	1r	.	2r	.	4f#X\	.	2dd\	.
!	!	!	!	!	!	!LO:TX:t=P:problem=przekreślona kreska taktowa	!	!	!
.	.	.	.	.	.	4b\	.	.	.
.	.	.	.	(4A\	a-	2a\	.	2cc\	-det
.	.	.	.	4B\)	.	.	.	.	.
=31	=31	=31	=31	=31	=31	=31	=31	=31	=31
!	!	!	!	!	!	!LO:TX:t=P:problem=przekreślona kreska taktowa	!	!	!
4E\	a-	(4E\	a-	4c\	-ut	2g\	-det	2r	.
4F#X\	-ut	4F#X\)	.	(8B\L	quiſ	.	.	.	.
.	.	.	.	8A\J)	.	.	.	.	.
!	!	!	!	!LO:LB:g=original	!	!LO:LB:g=original	!	!	!
4G\	quis	4G\	-ut	(4B\	sta-	2r	.	4b\	in
(8F#X\L	.	(8F#X\L	quiſ	4e\)	.	.	.	(8a\L	.
8E\J)	.	8E\J)	.	.	.	.	.	8g\J)	.
=32	=32	=32	=32	=32	=32	=32	=32	=32	=32
4F#X\	sta-	(4F#X\	sta-	2d\	.	4f#X\	in-	4a\	mon-
4B\	.	4B\)	.	.	.	(8e\L	.	4b\	tem
!	!	!	!	!	!	!LO:TX:t=P:problem=przekreślona kreska taktowa	!	!	!
.	.	.	.	.	.	8d\J)	.	.	.
2A\	.	2A\	.	2c\	-bit	4e\	-mon-	4.cc\	Do-
.	.	.	.	.	.	4f#X\	-tem	.	.
.	.	.	.	.	.	.	.	8cc\	-mi-
=33	=33	=33	=33	=33	=33	=33	=33	=33	=33
2G\	-bit	2G\	-bit	2r	.	4.g\	Do-	2b\	-ni
!	!	!	!	!	!	!LO:TX:t=P:problem=przekreślona kreska taktowa	!	!	!
.	.	.	.	.	.	8g\	-mi-	.	.
2r	.	2r	.	4B\	in	2f#X\	-ni	4dd\	a-
.	.	.	.	(8A\L	.	.	.	(8cc\L	.
.	.	.	.	8G\J)	.	.	.	8b\J)	.
=34	=34	=34	=34	=34	=34	=34	=34	=34	=34
4F#X\	in	4F#X\	in	4A\	lo-	4a\	a-	4a,\	-ut
8E\L	.	(8E\L	.	4B\	-co	(8g\L	.	4dd\	quis
!	!	!	!	!	!	!LO:TX:t=P:problem=przekreślona kreska taktowa	!	!	!
8D\J	.	8D\J)	.	.	.	8f#X\J)	.	.	.
4E\	lo-	4E\	lo-	2c\	San-	4e\	-ut	4g\	sta-
4F#X\	-co	4F#X\	-co	.	.	4a\	quis	4a\	-bit
=35	=35	=35	=35	=35	=35	=35	=35	=35	=35
2G\	San-	2G\	San-	2B\	-cto	4d\	sta-	2b\	in
!	!	!	!	!	!	!LO:TX:t=P:problem=przekreślona kreska taktowa	!	!	!
.	.	.	.	.	.	4e\	-bit	.	.
2F#X\	-cto	2F#X\	-cto	4r	.	4f#X\	in	4a\	lo-
.	.	.	.	[<4d\	e-	4A/	lo-	4a\	-co
!	!	!LO:LB:g=original	!	!	!	!	!	!LO:LB:g=original	!
=36	=36	=36	=36	=36	=36	=36	=36	=36	=36
1E\	E-	1E\	e-	4d\]	.	4B/	-co	4g#X/	San-
.	.	.	.	4c\	.	4c/	San-	4a\	-cto
.	.	.	.	2B\	.	4e\	-cto	(4a\	e-
.	.	.	.	.	.	4e\	e-	4g#X\)	.
=37-	=37	=37	=37	=37	=37	=37	=37	=37	=37
1AA/	-jus	1AA/	-jus.	1A\	-juſ	1e\	-juſ	1a\	-jus.
!	!	!	!	!LO:PB:g=original	!	!LO:PB:g=original	!	!	!
=38	=38	=38	=38	=38	=38	=38	=38	=38	=38
!	!	!LO:TX:a:t=2	!	!LO:TX:a:t=2	!	!	!	!	!
0r	.	0r	.	0r	.	2r	.	4.ee\	in-
.	.	.	.	.	.	.	.	8ee\	-no-
.	.	.	.	.	.	4.a\	In-	2cc\	-cenſ
.	.	.	.	.	.	8a\	-no-	.	.
=39	=39	=39	=39	=39	=39	=39	=39	=39	=39
.	.	.	.	.	.	2f\	-cens	(2a\	ma-
.	.	.	.	.	.	2d\	ma-	4.dd\)	.
.	.	.	.	.	.	.	.	8dd\	-ni-
=40-	=40	=40	=40	=40	=40	=40	=40	=40	=40
2r	.	2r	.	4.e\	in-	(4.g\	.	2b,\	-buſ
.	.	.	.	8e\	-no-	8g\)	-ni-	.	.
4.A\	In-	4.A\	In-	2c\	-cenſ	2e\	-buſ	4ee\	ma-
.	.	.	.	.	.	.	.	[<4cc\	.
8A\	-no-	8A\	-no-	.	.	.	.	.	.
=41	=41	=41	=41	=41	=41	=41	=41	=41	=41
2F,\	-cens	2F,\	-cenſ	2A/	ma-	4a\	ma-	4cc\]	.
.	.	.	.	.	.	2f\	.	4a\	-ni-
2D\	ma-	(2D/	ma-	(4.d\	.	.	.	2a\	-buſ
.	.	.	.	.	.	4d\	-ni-	.	.
.	.	.	.	8d\)	-ni-	.	.	.	.
=42	=42	=42	=42	=42	=42	=42	=42	=42	=42
4.G\	.	4.G\)	.	2B\	-bus	2d\	-buſ	4.b\	in-
8F\	-ni-	8G\	-ni-	.	.	.	.	8b\	-no-
2E\	-b(us)	2E\	-buſ	4e\	ma-	4.e\	in-	2g/	-cenſ
.	.	.	.	[4c\	.	.	.	.	.
.	.	.	.	.	.	8e\	-no-	.	.
!	!	!	!	!	!	!	!	!LO:LB:g=original	!
=43	=43	=43	=43	=43	=43	=43	=43	=43	=43
4A\	ma-	4A\	ma-	4c\]	.	2c/	-cenſ	4.cc\	in-
2F\	.	2F\	.	4A/	-ni-	.	.	.	.
.	.	.	.	.	.	.	.	8cc\	-no-
.	.	.	.	2A/	-buſ	4.f\	in-	4cc\	-cenſ
4D/	.	4D/	-ni-	.	.	.	.	[<4dd\	ma-
.	.	.	.	.	.	8f\	-no-	.	.
!LO:LB:g=original	!	!	!	!	!	!	!	!	!
=44	=44	=44	=44	=44	=44	=44	=44	=44	=44
2D\	.	2D,/	-buſ	4.B\	in-	4f\	-cenſ	4.dd\]	.
.	.	.	.	.	.	2g\	ma-	.	.
.	.	.	.	8B\	-no-	.	.	8dd\	-ni-
4.E\	.	4.E\	in-	2G/	-cenſ	.	.	4b,\	-buſ
.	.	.	.	.	.	4g\	-ni-	4b\	et
8E\	-ni-	8E\	-no-	.	.	.	.	.	.
=45	=45	=45	=45	=45	=45	=45	=45	=45	=45
2C,/	-bus	2C,/	-cenſ	4.c\	in-	4e,\	-bus	2cc\	mun-
.	.	.	.	.	.	4e\	et	.	.
.	.	.	.	8c\	-no-	.	.	.	.
4.F\	In-	4.F\	in-	4c\	-cenſ	2f\	mun-	2a\	-do
.	.	.	.	[4d\	ma-	.	.	.	.
8F\	-no-	8F\	-no-	.	.	.	.	.	.
!	!	!	!	!	!	!LO:LB:g=original	!	!	!
=46	=46	=46	=46	=46	=46	=46	=46	=46	=46
4F\	-cens	4F,\	-cenſ	4.d\]	.	2d\	-do	(4a\	cor-
2G\	ma-	2G\	ma-	.	.	.	.	4b\)	.
.	.	.	.	8d\	-ni-	.	.	.	.
!	!	!	!	!LO:LB:g=original	!	!	!	!	!
.	.	.	.	4B\	-buſ	(4d\	cor-	2b\	-de
4G\	-ni-	4G\	-ni-	4B\	et	4e\)	.	.	.
!	!	!LO:LB:g=original	!	!	!	!	!	!	!
=47	=47	=47	=47	=47	=47	=47	=47	=47	=47
4E,\	-b(us)	4E,\	-bus	2c\	mun-	2e\	-de	2g/	mun-
4E\	et	4E\	et	.	.	.	.	.	.
2F\	mun-	2F\	mun-	2A/	-do	2c/	mun-	2cc\	-do
=48	=48	=48	=48	=48	=48	=48	=48	=48	=48
2D,\	-do	2D,/	-do	(<4A/	cor-	2f\	-do	4dd\	mun-
.	.	.	.	4B\)	.	.	.	4dd\	-do
(4D\	cor-	(4D\	cor-	2B\	-de	4g\	mun-	(<4dd\	cor-
4E\)	.	4E\)	.	.	.	4g\	-do	4g/)	.
=49	=49	=49	=49	=49	=49	=49	=49	=49	=49
2E,\	-de	2E,\	-de	2G/	mun-	(<4g\	cor-	2g/	-de
.	.	.	.	.	.	4c/)	.	.	.
2C/	mun-	2C/	mun-	2c\	-do	2c/	-de	4r	.
.	.	.	.	.	.	.	.	4ee\	et
!	!	!	!	!	!	!	!	!LO:LB:g=original	!
=50	=50	=50	=50	=50	=50	=50	=50	=50	=50
2F,\	-do	2F,\	-do	4d\	mun-	4r	.	2a\	mun-
.	.	.	.	4d\	-do	4a\	et	.	.
*	*ij	*	*	*	*	*	*	*	*
4G\	mun-	4G\	mun-	4d\	cor-	2d\	mun-	2b\	-do
!	!	!	!	!LO:TX:t=P:4/center:problem	!	!	!	!	!
4G\	-do	4G\	-do	4G/	.	.	.	.	.
*	*Xij	*	*	*	*	*	*	*	*
=51	=51	=51	=51	=51	=51	=51	=51	=51	=51
4G\	cor-	(<4G\	cor-	2G/	-de	2e\	-do	2g/	mun-
4C/	.	4C/)	.	.	.	.	.	.	.
2C/	-de	2C/	-de	4r	.	2c/	mun-	2g/	-do
.	.	.	.	4e\	et	.	.	.	.
=52	=52	=52	=52	=52	=52	=52	=52	=52	=52
4r	.	4r	.	2A/	mun-	2c/	-do	(2cc\	cor-
4A\	et	4A\	et	.	.	.	.	.	.
!LO:SIC:v:custos E	!	!	!	!	!	!	!	!	!
2D\	mun-	2D\	mun-	2B\	-do	(2f\	cor-	2dd\)	.
!LO:LB:g=original	!	!	!	!	!	!	!	!	!
=53	=53	=53	=53	=53	=53	=53	=53	=53	=53
2E,\	-do	2E,\	-do	2G/	mun-	2g\)	.	2b\	-de
*	*ij	*	*	*	*	*	*	*	*
2C/	mun-	2C/	mun-	2G/	-do	2e\	-de	2r	.
!	!	!	!	!LO:LB:g=original	!	!	!	!	!
=54	=54	=54	=54	=54	=54	=54	=54	=54	=54
2C/	-do	2C,/	-do	(2c\	cor-	2r	.	2ee\	mun-
*	*Xij	*	*	*	*	*	*	*	*
(2F\	cor-	(2F\	cor-	2d\)	.	2a\	mun-	2a\	-do
=55	=55	=55	=55	=55	=55	=55	=55	=55	=55
2G\)	.	2G\)	.	2B,\	-de	2d\	-do	2b\	cor-
!	!	!	!	!	!	!LO:LB:g=original	!	!	!
2E\	-de	2E\	-de	2e\	cor-	[<2e\	cor-	2g#X/	.
=56	=56	=56	=56	=56	=56	=56	=56	=56	=56
2A\	Cor-	(2A\	cor-	(2A/	.	4e\]	.	2cc\	.
.	.	.	.	.	.	4a\	.	.	.
2E\	.	2E\)	.	2B\)	.	2g#X\	.	2b\	.
=57	=57	=57	=57	=57	=57	=57	=57	=57	=57
0AA/;	-de.	1AA/;	-de	1c#X\	-de.	1a\	-de	1a\;	-de.
!	!	!LO:PB:g=original	!	!	!	!	!	!	!
=58	=58	=58	=58	=58	=58	=58	=58	=58	=58
!LO:TX:b:i:t=O. ad M. D. G.	!	!LO:TX:t=P:problem=brak taktu	!	!LO:TX:t=P:problem=brak taktu	!	!	!	!LO:TX:t=P:problem=brak taktu	!
.	.	1ryy	.	1ryy	.	1ryy	.	1ryy	.
=59||	=59||	=59||	=59||	=59||	=59||	=59||	=59||	=59||	=59||
!LO:TX:t=P:problem=koniec partii	!	!LO:TX:a:t=2	!	!LO:TX:a:t=1.	!	!	!	!LO:TX:a:i:t=S.	!
1ryy	.	0r	.	1r	.	2r	.	4r	.
.	.	.	.	.	.	.	.	(4a\	al-
.	.	.	.	.	.	4r	.	4b\	.
.	.	.	.	.	.	4e\	al-	4g/)	.
=60	=60	=60	=60	=60	=60	=60	=60	=60	=60
1ryy	.	.	.	2r	.	(4f#X\	.	(4a\	-le-
.	.	.	.	.	.	4d\)	.	4b\)	.
.	.	.	.	4r	.	4e\	-le-	2cc\	-lu-
.	.	.	.	4A/	al-	4f#X\	.	.	.
!	!	!	!	!	!	!	!	!LO:LB:g=original	!
=61	=61	=61	=61	=61	=61	=61	=61	=61	=61
1ryy	.	4r	.	(4B\	.	2g\	-lu-	2b\	-ja
.	.	4E\	al-	4G\)	.	.	.	.	.
.	.	4F#X\	.	4A\	-le-	2f#X\	-ja	4a\	al-
.	.	4D/	.	4B\	.	.	.	4dd\	-le-
=62	=62	=62	=62	=62	=62	=62	=62	=62	=62
1ryy	.	(4E\	-le-	2c\	-lu-	4e\	al-	(4g/	-lu-
.	.	4F#X\)	.	.	.	4a\	-le-	4a\)	.
.	.	2G\	-lu-	2B\	-ja	4d\	-lu-	2b\	-ja
.	.	.	.	.	.	4e\	.	.	.
=63	=63	=63	=63	=63	=63	=63	=63	=63	=63
1ryy	.	2F#X\	-ja	4A\	al-	2f#X\	-ja	1r	.
.	.	.	.	4d\	-le-	.	.	.	.
.	.	4E\	al-	(4G/	-lu-	2r	.	.	.
.	.	4A\	-le-	4A/)	.	.	.	.	.
=64	=64	=64	=64	=64	=64	=64	=64	=64	=64
1ryy	.	4D/	-lu-	2B\	-ja	2r	.	4dd\	al-
.	.	(4E\	.	.	.	.	.	4b\	-le-
.	.	2F#X\)	-ja	2r	.	4a\	al-	2a\	-lu-
.	.	.	.	.	.	4f#X\	-le-	.	.
!	!	!	!	!LO:LB:g=original	!	!	!	!	!
=65	=65	=65	=65	=65	=65	=65	=65	=65	=65
1ryy	.	1r	.	2r	.	2e\	-lu-	2g,/	-ja
.	.	.	.	4d\	al-	2d\	-ja	4a\	.
.	.	.	.	4B\	-le-	.	.	4b\	.
!	!	!	!	!	!	!LO:LB:g=original	!	!	!
=66	=66	=66	=66	=66	=66	=66	=66	=66	=66
1ryy	.	4A\	al-	2A/	-lu-	4e\	a-	4cc\	.
.	.	4F#X\	-le-	.	.	4f#X\	.	4dd\	.
.	.	2E\	-lu-	2G/	-ja	4g\	.	4b\	.
.	.	.	.	.	.	4a\	.	4cc\	.
=67	=67	=67	=67	=67	=67	=67	=67	=67	=67
1ryy	.	2D,/	-ja	4A\	.	4f#X\	.	2dd\	.
.	.	.	.	4B\	.	4g\	.	.	.
.	.	4E\	al-	4c\	.	2a\	.	2r	.
.	.	4F#X\	.	4d\	.	.	.	.	.
=68	=68	=68	=68	=68	=68	=68	=68	=68	=68
1ryy	.	4G\	.	4B\	.	1r	.	2r	.
.	.	4A\	.	4c\	.	.	.	.	.
.	.	4F#X\	.	2d\	.	.	.	4a\	al-
.	.	4G\	.	.	.	.	.	4b\	-le-
!	!	!LO:LB:g=original	!	!	!	!	!	!	!
=69	=69	=69	=69	=69	=69	=69	=69	=69	=69
!	!	!	!	!	!	!LO:SIC:v:l:s=al-	!	!	!
1ryy	.	2A\	.	1r	.	4e\	-a-	2cc\	-lu-
!	!	!	!	!	!	!LO:SIC:v:l:s=-le-	!	!	!
.	.	.	.	.	.	4f#X\	-lle-	.	.
.	.	2r	.	.	.	2g\	-lu-	2b\	-ja
=70	=70	=70	=70	=70	=70	=70	=70	=70	=70
1ryy	.	2r	.	4A\	al-	2f#X,\	-ja	4a\	al-
.	.	.	.	4B\	-le-	.	.	4dd\	.
.	.	4E\	-al-	2c\	-lu-	4e\	al-	4g\	.
.	.	4F#X\	-le-	.	.	4a\	.	4a\	.
=71	=71	=71	=71	=71	=71	=71	=71	=71	=71
1ryy	.	2G\	-lu-	2B\	-ja	4d\	.	4b\	.
.	.	.	.	.	.	4e\	.	4g\	.
.	.	2F#X\	-ja	4A/	al-	4f#X\	.	2a\	.
.	.	.	.	4d\	.	4d\	.	.	.
=72	=72	=72	=72	=72	=72	=72	=72	=72	=72
1ryy	.	4E\	al-	4G/	.	2e\	.	4b\	.
.	.	4A\	.	4A/	.	.	.	4cc\	.
.	.	4D\	.	4B\	.	4f#X\	.	4dd\	.
.	.	4E\	.	4G/	.	4g\	.	8cc\L	.
.	.	.	.	.	.	.	.	8b\J	.
=73	=73	=73	=73	=73	=73	=73	=73	=73	=73
1ryy	.	4F#X\	.	4A/	.	4a\	.	4a\	.
.	.	4D/	-le-	8d\L	-le-	4f#X\	-le-	4a\	-le-
.	.	.	.	8c\J	.	.	.	.	.
.	.	2E\	-lu-	2B\	-lu-	2e\	-lu-	4a\	-lu-
.	.	.	.	.	.	.	.	4g#X/	.
=74	=74	=74	=74	=74	=74	=74	=74	=74	=74
1ryy	.	1AA/;	-ja	1A\	-ja	1e\	-ja .	1a\	-ja
!	!	!	!	!LO:LB:g=original	!	!LO:LB:g=original	!	!	!
=75||	=75||	=75||	=75||	=75||	=75||	=75||	=75||	=75||	=75||
!	!	!LO:TX:a:t=2	!	!LO:TX:a:t=1.	!	!LO:TX:a:t=1.	!	!	!
1ryy	.	0r	.	1r	.	1r	.	4r	.
!	!	!	!	!	!	!	!	!LO:SIC:v:l:s=al-	!
.	.	.	.	.	.	.	.	4a\	a-
.	.	.	.	.	.	.	.	4b\	.
.	.	.	.	.	.	.	.	4g/	.
!	!	!	!	!	!	!	!	!LO:LB:g=original	!
=76	=76	=76	=76	=76	=76	=76	=76	=76	=76
1ryy	.	.	.	2r	.	4r	.	(4a\	-le-
.	.	.	.	.	.	4d\	al-	4b\)	.
.	.	.	.	4r	.	4e\	.	2cc\	-lu-
.	.	.	.	4A/	al-	4c/	.	.	.
=77	=77	=77	=77	=77	=77	=77	=77	=77	=77
1ryy	.	2r	.	4B\	.	4d\	-le-	2b\	-ja
.	.	.	.	4G/	.	4e\	.	.	.
.	.	4r	.	4A/	-le-	2fn\	-lu-	4a\	al-
.	.	4D/	al-	4B\	.	.	.	4dd\	-le-
=78	=78	=78	=78	=78	=78	=78	=78	=78	=78
1ryy	.	4E\	.	2c\	-lu-	2e\	-ja	4g/	-lu-
.	.	4C/	.	.	.	.	.	4a\	.
.	.	(<4D/	-le-	2B\	-ja	4d\	al-	2b\	-ja
.	.	4E\)	.	.	.	4g\	-le-	.	.
=79	=79	=79	=79	=79	=79	=79	=79	=79	=79
1ryy	.	2Fn\	-lu-	4A\	al-	4c/	-lu-	2r	.
.	.	.	.	4d\	-le-	4d\	.	.	.
.	.	2E\	-ja	4G/	-lu-	2e\	-ja	4gg\	al-
.	.	.	.	4A/	.	.	.	4cc\	-le-
!	!	!LO:LB:g=original	!	!	!	!	!	!	!
=80	=80	=80	=80	=80	=80	=80	=80	=80	=80
1ryy	.	4D\	al-	2B\	-ja	2r	.	2dd\	-lu-
.	.	4G\	-le-	.	.	.	.	.	.
.	.	4C/	-lu-	2r	.	4cc\	al-	2cc\	-ja
.	.	4D/	.	.	.	4f\	-le-	.	.
=81	=81	=81	=81	=81	=81	=81	=81	=81	=81
1ryy	.	2E\	-ja	4g\	al-	2g\	-lu-	2r	.
.	.	.	.	4c\	-le-	.	.	.	.
.	.	2r	.	2d\	-lu-	2f\	-ja	4a\	al-
.	.	.	.	.	.	.	.	4b\	-le-
=82	=82	=82	=82	=82	=82	=82	=82	=82	=82
1ryy	.	4c\	al-	2c\	-ja	2r	.	2cc\	-lu-
.	.	4F\	-le-	.	.	.	.	.	.
.	.	2G\	-lu-	2r	.	4d\	al-	2b\	.
.	.	.	.	.	.	4e\	-le-	.	.
=83	=83	=83	=83	=83	=83	=83	=83	=83	=83
1ryy	.	2F\	-ja	4A\	al-	(2f\	-lu-	2a\	-ja
.	.	.	.	4B\	-le-	.	.	.	.
.	.	2r	.	2c\	-lu-	2e\)	.	2r	.
=84	=84	=84	=84	=84	=84	=84	=84	=84	=84
1ryy	.	(4D\	al-	2B\	.	2d\	-ja	2r	.
.	.	4E\)	.	.	.	.	.	.	.
.	.	2F\	-le-	2A/	-ja	2r	.	4r	.
.	.	.	.	.	.	.	.	4a\	al-
=85	=85	=85	=85	=85	=85	=85	=85	=85	=85
!	!	!	!	!LO:TX:a:t=1.	!	!	!	!	!
1ryy	.	2E\	-lu-	1r	.	2r	.	4b\	.
.	.	.	.	.	.	.	.	4g/	.
.	.	2D/	-ja	.	.	4r	.	4a\	.
.	.	.	.	.	.	4d\	al-	4b\	.
!	!	!	!	!	!	!LO:LB:g=original	!	!	!
=86	=86	=86	=86	=86	=86	=86	=86	=86	=86
!	!	!LO:TX:a:t=1.	!	!	!	!	!	!	!
1ryy	.	1r	.	4r	.	4e\	.	2cc\	.
.	.	.	.	4A/	al-	4c\	.	.	.
.	.	.	.	4B\	.	4d\	.	2b\	.
.	.	.	.	4G/	.	4e\	.	.	.
!	!	!	!	!LO:LB:g=original	!	!	!	!	!
=87	=87	=87	=87	=87	=87	=87	=87	=87	=87
1ryy	.	4r	.	4A\	.	2f\	.	4a\	.
.	.	4D\	al-	4B\	.	.	.	4dd\	.
.	.	4E\	.	2c\	.	2e\	.	4g/	.
.	.	4C\	.	.	.	.	.	4a\	.
=88	=88	=88	=88	=88	=88	=88	=88	=88	=88
1ryy	.	4D\	.	2B\	.	4d\	.	2b\	.
.	.	4E\	.	.	.	4g\	.	.	.
.	.	2F\	.	4A/	.	4c\	.	4a\	-le-
.	.	.	.	4d\	.	4d\	.	4b\	.
=89	=89	=89	=89	=89	=89	=89	=89	=89	=89
1ryy	.	2E\	.	4G/	.	2e\	.	2cc\	-lu-
.	.	.	.	4A/	.	.	.	.	.
.	.	4D/	.	2B\	.	4d\	-le-	2b\	-ja
.	.	4G\	.	.	.	4e\	.	.	.
!	!	!LO:LB:g=original	!	!	!	!	!	!	!
=90	=90	=90	=90	=90	=90	=90	=90	=90	=90
1ryy	.	4C/	.	4A\	.	2f\	-lu-	1r	.
.	.	4D/	.	4B\	-le-	.	.	.	.
.	.	2E\	.	2c\	-lu-	2e\	-ja	.	.
=91	=91	=91	=91	=91	=91	=91	=91	=91	=91
1ryy	.	4D\	-le-	2B\	-ja	4f\	al-	4dd\	al-
.	.	4E\	.	.	.	4g\	.	4g/	-le-
.	.	2F\	-lu-	2r	.	4f\	.	4a\	-lu-
.	.	.	.	.	.	4c/	.	4a\	-ja
=92	=92	=92	=92	=92	=92	=92	=92	=92	=92
1ryy	.	2E,\	-ja	2G#X/	al-	2e\	.	(4b\	al-
.	.	.	.	.	.	.	.	4cc\)	.
.	.	2BB/	al-	2B\	.	2d\	-le-	2dd\	.
!	!	!	!	!	!	!	!	!LO:LB:g=original	!
=93	=93	=93	=93	=93	=93	=93	=93	=93	=93
1ryy	.	4C/	-le-	2A/	-le-	1e\	-lu-	2cc\	-le-
.	.	4D/	.	.	.	.	.	.	.
.	.	2E\	-lu-	2G#X/	-lu-	.	.	2b\	-lu-
=94	=94	=94	=94	=94	=94	=94	=94	=94	=94
!	!	!LO:TX:b:i:t=O. ad M. D. G.	!	!LO:TX:b:i:t=O. ad M. D. G.	!	!LO:TX:b:i:t=O. ad M. D. G.	!	!	!
1ryy	.	1AA/;	-ja.	1A\	-ja.	1e\	-ja.	1a\;	-ja.
==	==	==	==	==	==	==	==	==	==
*-	*-	*-	*-	*-	*-	*-	*-	*-	*-
!!!system-decoration: [(s1,s2,s3,s4)]s5
!!!RDF**kern: > = above
!!!RDF**kern: < = below
!!!EED: Leszek Kubiak
!!!EST: 2021-03-02
!!!AIN: 1 alto 2 empty 1 tenor 1 vox
!!!ENC: Andrzej Borzym
!!!END: 2021-02-15
